assets/svg/1f4b5.svg

<svg xmlns="http://www.w3.org/2000/svg" viewBox="0 0 64 64" enable-background="new 0 0 64 64"><path fill="#699635" d="m0 46.5h64v9h-64z"/><path fill="#83bf4f" d="m0 8.499h64v38h-64z"/><path fill="#94989b" d="m24 46.5h16v9h-16z"/><path fill="#699635" d="m4 12.499h56v30h-56z"/><path fill="#83bf4f" d="m7 15.499h50v24h-50z"/><circle fill="#699635" cx="45" cy="27.5" r="8"/><path fill="#d0d0d0" d="m24 8.499h16v38h-16z"/><path fill="#fff" d="m16 26.5c-1.103 0-2-.897-2-2s.897-2 2-2 2 .896 2 2h2c0-1.858-1.279-3.41-3-3.857v-1.143h-2v1.143c-1.721.447-3 1.999-3 3.857 0 2.206 1.794 4 4 4 1.103 0 2 .896 2 2s-.897 2-2 2-2-.896-2-2h-2c0 1.858 1.279 3.41 3 3.857v1.143h2v-1.143c1.721-.447 3-1.999 3-3.857 0-2.205-1.794-4-4-4"/></svg>

<svg xmlns="http://www.w3.org/2000/svg" width="64" height="64" viewBox="0 0 64 64"><path fill="#699635" d="M0 46.5h64v9H0z"/><path fill="#83BF4F" d="M0 8.499h64V46.5H0z"/><path fill="#94989B" d="M24 46.5h16v9H24z"/><path fill="#699635" d="M4 12.499h56V42.5H4z"/><path fill="#83BF4F" d="M7 15.499h50V39.5H7z"/><circle fill="#699635" cx="45" cy="27.5" r="8"/><path fill="#D0D0D0" d="M24 8.499h16V46.5H24z"/><path fill="#FFF" d="M16 26.5a2.001 2.001 0 0 1 0-4.001c1.103 0 2 .896 2 2h2c0-1.858-1.279-3.41-3-3.857v-1.143h-2v1.143c-1.721.447-3 1.999-3 3.857a4.005 4.005 0 0 0 4 4.001c1.103 0 2 .896 2 2s-.897 2-2 2-2-.896-2-2h-2c0 1.858 1.279 3.41 3 3.857V35.5h2v-1.143c1.721-.447 3-1.999 3-3.857 0-2.205-1.794-4-4-4z"/></svg>
